X:499
T:Bulgaros
T:Lerem, lerem
Z:Jack Campin, http://www.campin.me.uk/
F:Jack Campin's Nine-Note Tunebook
% last edit 03-02-2013
O:Csango Hungarian dance tune from Moldavia
M:C|
L:1/8
Q:1/2=96
K:DMin
A3F A3F   |A2A2   G2F2|G3F    G3F   |A2A2   G2F2:|
D3E F>EG>E|F>EG>E F2E2|D3E    F>EG>E|F>DE>C D4   |
D3E F>EG>E|F>ED>E F2G2|A>FG>E F>EG>E|F>DE>C D4  ||

